groups/alkynes/propyne.svg

<?xml version='1.0' encoding='iso-8859-1'?>
<svg version='1.1' baseProfile='full'
              xmlns='http://www.w3.org/2000/svg'
                      xmlns:rdkit='http://www.rdkit.org/xml'
                      xmlns:xlink='http://www.w3.org/1999/xlink'
                  xml:space='preserve'
width='256px' height='256px' viewBox='0 0 256 256'>
<!-- END OF HEADER -->
<rect style='opacity:1.0;fill:#FFFFFF;stroke:none' width='256.0' height='256.0' x='0.0' y='0.0'> </rect>
<path class='bond-0 atom-0 atom-1' d='M 28.3,166.4 L 82.5,135.4' style='fill:none;fill-rule:evenodd;stroke:#000000;stroke-width:2.0px;stroke-linecap:butt;stroke-linejoin:miter;stroke-opacity:1' />
<path class='bond-1 atom-1 atom-2' d='M 82.5,135.4 L 136.7,104.4' style='fill:none;fill-rule:evenodd;stroke:#000000;stroke-width:2.0px;stroke-linecap:butt;stroke-linejoin:miter;stroke-opacity:1' />
<path class='bond-1 atom-1 atom-2' d='M 77.9,127.3 L 132.1,96.2' style='fill:none;fill-rule:evenodd;stroke:#000000;stroke-width:2.0px;stroke-linecap:butt;stroke-linejoin:miter;stroke-opacity:1' />
<path class='bond-1 atom-1 atom-2' d='M 87.2,143.5 L 141.4,112.5' style='fill:none;fill-rule:evenodd;stroke:#000000;stroke-width:2.0px;stroke-linecap:butt;stroke-linejoin:miter;stroke-opacity:1' />
<path class='bond-2 atom-2 atom-3' d='M 136.7,104.4 L 177.6,80.9' style='fill:none;fill-rule:evenodd;stroke:#000000;stroke-width:2.0px;stroke-linecap:butt;stroke-linejoin:miter;stroke-opacity:1' />
<path d='M 79.8,136.9 L 82.5,135.4 L 85.2,133.8' style='fill:none;stroke:#000000;stroke-width:2.0px;stroke-linecap:butt;stroke-linejoin:miter;stroke-miterlimit:10;stroke-opacity:1;' />
<path d='M 134.0,105.9 L 136.7,104.4 L 138.8,103.2' style='fill:none;stroke:#000000;stroke-width:2.0px;stroke-linecap:butt;stroke-linejoin:miter;stroke-miterlimit:10;stroke-opacity:1;' />
<path class='atom-1' d='M43.8354,193.517 C45.8676,192.353 44.3159,189.643 42.2836,190.807 C40.2513,191.971 38.6996,189.262 40.7318,188.098 C42.7641,186.934 41.2123,184.224 39.18,185.388 C37.1478,186.552 35.596,183.843 37.6283,182.679 C39.6605,181.515 38.1088,178.805 36.0765,179.969 C34.0442,181.133 32.4925,178.424 34.5247,177.26 C36.557,176.096 35.0052,173.386 32.973,174.55 C30.9407,175.714 29.3889,173.004 31.4212,171.841 C33.4535,170.677 31.9017,167.967 29.8694,169.131 C27.8372,170.295 26.2854,167.585 28.3177,166.422 C30.3499,165.258 28.7982,162.548 26.7659,163.712 C24.7336,164.876 23.1819,162.166 25.2141,161.003 C27.2464,159.839 25.6946,157.129 23.6624,158.293 C21.6301,159.457 20.0783,156.747 22.1106,155.584 C24.1429,154.42 22.5911,151.71 20.5588,152.874 C18.5266,154.038 16.9748,151.328 19.0071,150.165 C21.0393,149.001 19.4876,146.291 17.4553,147.455 C15.423,148.619 13.8713,145.909 15.9035,144.746 C17.9358,143.582 16.384,140.872 14.3518,142.036 C12.3195,143.2 10.7677,140.49 12.8,139.327' style='fill:none;stroke:#7F7F7F;stroke-width:2.0px;stroke-linecap:butt;stroke-linejoin:miter;stroke-opacity:1' />
<text x='179.7' y='92.1' class='atom-3' style='font-size:37px;font-style:normal;font-weight:normal;fill-opacity:1;stroke:none;font-family:sans-serif;text-anchor:start;fill:#000000' >C</text>
<text x='205.5' y='92.1' class='atom-3' style='font-size:37px;font-style:normal;font-weight:normal;fill-opacity:1;stroke:none;font-family:sans-serif;text-anchor:start;fill:#000000' >H</text>
<text x='231.4' y='107.0' class='atom-3' style='font-size:24px;font-style:normal;font-weight:normal;fill-opacity:1;stroke:none;font-family:sans-serif;text-anchor:start;fill:#000000' >3</text>
</svg>

<svg height="256" viewBox="0 0 256 256" width="256" xmlns="http://www.w3.org/2000/svg"><path d="m0 0h256v256h-256z" fill="#fff"/><g fill="none" stroke-width="2"><path d="m28.3 166.4 54.2-31" stroke="#000"/><path d="m82.5 135.4 54.2-31" stroke="#000"/><path d="m77.9 127.3 54.2-31.1" stroke="#000"/><path d="m87.2 143.5 54.2-31" stroke="#000"/><path d="m136.7 104.4 40.9-23.5" stroke="#000"/><path d="m79.8 136.9 2.7-1.5 2.7-1.6" stroke="#000" stroke-miterlimit="10"/><path d="m134 105.9 2.7-1.5 2.1-1.2" stroke="#000" stroke-miterlimit="10"/><path d="m43.835 193.517c2.033-1.164.481-3.874-1.551-2.71-2.033 1.164-3.584-1.545-1.552-2.709s.48-3.874-1.552-2.71-3.584-1.545-1.552-2.709c2.033-1.164.481-3.874-1.551-2.71-2.033 1.164-3.584-1.545-1.552-2.709s.48-3.874-1.552-2.71-3.584-1.546-1.552-2.709c2.033-1.164.481-3.874-1.552-2.71-2.032 1.164-3.584-1.546-1.551-2.709 2.032-1.164.48-3.874-1.552-2.71s-3.584-1.546-1.552-2.709c2.032-1.164.481-3.874-1.552-2.71-2.032 1.164-3.584-1.546-1.551-2.709 2.032-1.164.48-3.874-1.552-2.71s-3.584-1.546-1.552-2.709c2.032-1.164.481-3.874-1.552-2.71-2.032 1.164-3.584-1.546-1.551-2.709 2.032-1.164.48-3.874-1.552-2.71s-3.584-1.546-1.552-2.709" stroke="#7f7f7f"/></g><text font-family="sans-serif" font-size="37" x="179.7" y="92.1">C</text><text font-family="sans-serif" font-size="37" x="205.5" y="92.1">H</text><text font-family="sans-serif" font-size="24" x="231.4" y="107">3</text></svg>
